svgs/sharp-light/mars-stroke-up.svg

<svg xmlns="http://www.w3.org/2000/svg" viewBox="0 0 320 512"><!--! Font Awesome Pro 6.6.0 by @fontawesome - https://fontawesome.com License - https://fontawesome.com/license (Commercial License) Copyright 2024 Fonticons, Inc. --><path d="M171.3 12.7L160 1.4 148.7 12.7l-56 56L81.4 80 104 102.6l11.3-11.3L144 62.6l0 65.4-48 0-16 0 0 32 16 0 48 0 0 32.8C63.1 200.8 0 269 0 352c0 88.4 71.6 160 160 160s160-71.6 160-160c0-83-63.1-151.2-144-159.2l0-32.8 48 0 16 0 0-32-16 0-48 0 0-65.4 28.7 28.7L216 102.6 238.6 80 227.3 68.7l-56-56zM160 480a128 128 0 1 1 0-256 128 128 0 1 1 0 256z"/></svg>

<svg xmlns="http://www.w3.org/2000/svg" viewBox="0 0 320 512"><!--! Font Awesome Pro 6.4.0 by @fontawesome - https://fontawesome.com License - https://fontawesome.com/license (Commercial License) Copyright 2023 Fonticons, Inc. --><path d="M171.3 12.7L160 1.4 148.7 12.7l-56 56L81.4 80 104 102.6l11.3-11.3L144 62.6V128H96 80v32H96h48v32.8C63.1 200.8 0 269 0 352c0 88.4 71.6 160 160 160s160-71.6 160-160c0-83-63.1-151.2-144-159.2V160h48 16V128H224 176V62.6l28.7 28.7L216 102.6 238.6 80 227.3 68.7l-56-56zM160 480a128 128 0 1 1 0-256 128 128 0 1 1 0 256z"/></svg>
